src/symbolic/apps/password-manager-symbolic.svg

<svg xmlns="http://www.w3.org/2000/svg" width="16" height="16"><path d="M4.5 1a4.5 4.5 0 0 0 0 9c1.9 0 3.6-1.2 4.24-3H12v2h3V7h1V4H8.74A4.532 4.532 0 0 0 4.5 1zm0 3C5.33 4 6 4.68 6 5.5 6 6.33 5.33 7 4.5 7S3 6.33 3 5.5C3 4.68 3.67 4 4.5 4z" fill="#444"/><path d="M9.24 8.13c-.5.9-1.22 1.64-2.09 2.15l1.6 1.59-1.42 1.41 2.12 2.12 1.42-1.42.7.71 2.13-2.12z" opacity=".3" fill="#444"/></svg>

<svg xmlns="http://www.w3.org/2000/svg" width="16" height="16" version="1.1">
 <path style="fill:#444444" d="M 4.5,1 C 2.01,1 0,3.02 0,5.5 0,7.99 2.01,10 4.5,10 6.4,10 8.1,8.8 8.74,7 H 12 V 9 H 15 V 7 H 16 V 4 H 8.74 C 8.1,2.21 6.4,1.01 4.5,1 Z M 4.5,4 C 5.33,4 6,4.68 6,5.5 6,6.33 5.33,7 4.5,7 3.67,7 3,6.33 3,5.5 3,4.68 3.67,4 4.5,4 Z"/>
 <path style="opacity:0.3;fill:#444444" d="M 9.24,8.13 C 8.74,9.03 8.02,9.77 7.15,10.28 L 8.75,11.87 7.33,13.28 9.45,15.4 10.87,13.98 11.57,14.69 13.7,12.57 Z"/>
</svg>
